X: 1
T: Mariannas vals % av Bj\"orn St\aabi
C: av Bj\"orn St\aabi
S: Bruce Sagan's "scanfolk" session archive
F: https://app.box.com/s/u6iiren0igvsukrhdducy7orq72jayq8/file/763358363601
R: waltz
Z: 2021 John Chambers <jc:trillian.mit.edu>
M: 3/4
L: 1/8
K: Ddor	% and D
% - - - - - - - - - -
V: 1 staves=2
"^A"[|] zA2 |:\
"Dm"d3 (e d^c) | (dA) (FA) df | a3 (b a^g) | "C"a2 (c2 e2) |\
"A7"g3 (a g^f) | g2 (e^c) eg |[1,3 "Dm"(fe) (df) ag | "A"e4 A2 :|\
[2,4 "Dm"(fe) (df) "A7"e^c | "Dm"d3 "^fine":|
"^B"|: ze2 |:\
"Dm"d3 (^c de) | f2 (d2 B2) | "C"c3 (B cd) | c2 e2 dc | "E"B2 (e2 d2) |\
[1,3 B2 ^G2 EG | "Am"(Ac) (Bd) cf | "A"e4 e2 :|\
[2,4 "Am"c4 B2 | (A^G) (Ac) "E"Bc | "Am"A3 :|[K:D]
"^C"|: (B A^F) |:\
"D"D3 (G FE) | D2 (DF) Ad | (AF) (Ad) fg | a4 (fa) |\
"A7"(ag) (ea) ge | "D"(gf) (df) ag |\
[1,3 "A"(eA) (cd) (ef) | "A7"e3 (c AF) :|\
[2,4 "A7"(ec) e2 ef | "D"d3 :|
% - - - - - - - - - -
V: 2
 zz2 |:\
"Dm"F3 (G FE) | (FD) (A,D) FA | F3 (G FE) | "C"E2 (G2 c2) |\
"A7"e3 (f e^d) | e2 (^cA) ce |\
[1,3 "Dm"(d^c) (Ad) fe | "A"[c4E4] E2 :|\
[2,4 "Dm"(d^c) (Ad) "A7"cA | F3 "^fine":|
|: zE2 |:\
"Dm"F3 (E F[AG]) | [d2A2] ([A2F2] D2) | "C"E3 (D EF) | E2 c2 BA | "E"[B2E2] ([B2E2] ^G2) |\
[1,3 E2 (ED) B,E | "Am"(CE) (DF) Ed | "A"[^c4E4] A2 :|\
[2,4 "Am"E4 D2 | (CB,) (CE) "E"DE | "Am"C3 :|[K:D]
|: (G ^FD) |:\
"D"A,3 (B, A,G,) | A,2 (A,D) DF | (A,D) (FA) de | f4 (df) |\
"A7"(fe) (cf) ec | "D"(ed) (Ad) fe |\
[1,3 "A"(cE) (AB) cA | "A7"G3 (E FD) :|\
[2,4 "A7"(cA) c2 cA | "D"F3 :|

